learning-site/svg (91).svg

<svg xmlns="http://www.w3.org/2000/svg" xmlns:xlink="http://www.w3.org/1999/xlink" viewBox="0 0 100 118" version="1.1"><!-- Generator: Sketch 51.3 (57544) - http://www.bohemiancoding.com/sketch --><title>architect-great-solutions-with-azure</title><desc>Created with Sketch.</desc><defs><filter x="-1.4%" y="-1.5%" width="102.9%" height="106.1%" filterUnits="objectBoundingBox" id="filter-1"><feOffset dx="0" dy="2" in="SourceAlpha" result="shadowOffsetOuter1"></feOffset><feColorMatrix values="0 0 0 0 0   0 0 0 0 0   0 0 0 0 0  0 0 0 0.0998358243 0" type="matrix" in="shadowOffsetOuter1" result="shadowMatrixOuter1"></feColorMatrix><feMerge><feMergeNode in="shadowMatrixOuter1"></feMergeNode><feMergeNode in="SourceGraphic"></feMergeNode></feMerge></filter><filter x="-8.3%" y="-3.1%" width="116.7%" height="112.5%" filterUnits="objectBoundingBox" id="filter-2"><feOffset dx="0" dy="2" in="SourceAlpha" result="shadowOffsetOuter1"></feOffset><feColorMatrix values="0 0 0 0 0   0 0 0 0 0   0 0 0 0 0  0 0 0 0.0998358243 0" type="matrix" in="shadowOffsetOuter1" result="shadowMatrixOuter1"></feColorMatrix><feMerge><feMergeNode in="shadowMatrixOuter1"></feMergeNode><feMergeNode in="SourceGraphic"></feMergeNode></feMerge></filter><filter x="-3.8%" y="-2.7%" width="107.7%" height="110.8%" filterUnits="objectBoundingBox" id="filter-3"><feOffset dx="0" dy="2" in="SourceAlpha" result="shadowOffsetOuter1"></feOffset><feColorMatrix values="0 0 0 0 0   0 0 0 0 0   0 0 0 0 0  0 0 0 0.0998358243 0" type="matrix" in="shadowOffsetOuter1" result="shadowMatrixOuter1"></feColorMatrix><feMerge><feMergeNode in="shadowMatrixOuter1"></feMergeNode><feMergeNode in="SourceGraphic"></feMergeNode></feMerge></filter></defs><g id="Badges-FINAL" stroke="none" stroke-width="1" fill="none" fill-rule="evenodd"><g id="Architect-Great-Solutions-with-Azure" transform="translate(-577.000000, -146.000000)"><g id="architect-great-solutions-with-azure" transform="translate(577.000000, 146.000000)"><path d="M44.7425,3.49663266 C46.3745,2.49887755 48.1865,2 50,2 C51.8135,2 53.627,2.49887755 55.256,3.49663266 L92.591,26.3316189 C95.933,28.3773408 98,32.2031485 98,36.3529027 L98,81.6470973 C98,85.7952317 95.933,89.6242789 92.591,91.6683811 L55.256,114.504987 C53.627,115.501122 51.8135,116 50,116 C48.1865,116 46.3745,115.501122 44.7425,114.504987 L7.409,91.6683811 C4.0655,89.6242789 2,85.7952317 2,81.6470973 L2,36.3529027 C2,32.2031485 4.0655,28.3773408 7.409,26.3316189 L44.7425,3.49663266 Z" id="Trophy-1" fill="#F2C811"></path><g id="Blueprint" filter="url(#filter-1)" transform="translate(18.000000, 23.000000)"><path d="M61.9421746,51.19379 L61.9421746,13.19379 L4.94217464,13.19379 C3.83717464,13.19379 2.94217464,14.08879 2.94217464,15.19379 L2.94217464,61.19379 C2.94217464,62.29879 3.83717464,63.19379 4.94217464,63.19379 L61.9421746,63.19379 C64.7031746,63.19379 66.9421746,60.95479 66.9421746,58.19379 L66.9421746,51.19379 L61.9421746,51.19379" id="Fill-20" fill="#4D84CD" transform="translate(34.942175, 38.193790) rotate(-5.000000) translate(-34.942175, -38.193790) "></path><path d="M61.1819581,50.7819689 L60.1819581,50.7819689 C59.0769581,50.7819689 58.1819581,49.8869689 58.1819581,48.7819689 L58.1819581,2.78196893 C58.1819581,1.67696893 59.0769581,0.78196893 60.1819581,0.78196893 L61.1819581,0.78196893 C63.9429581,0.78196893 66.1819581,3.02096893 66.1819581,5.78196893 L66.1819581,55.7819689 C66.1819581,53.0209689 63.9429581,50.7819689 61.1819581,50.7819689" id="Fill-21" fill="#314263" transform="translate(62.181958, 28.281969) rotate(-5.000000) translate(-62.181958, -28.281969) "></path><path d="M48.2530349,32.8972348 L38.3976875,38.4990675 C37.741039,38.8723101 37.3354158,39.5694382 37.3354158,40.3247509 L37.3354158,51.3902735 C37.3354158,52.5500715 38.2756179,53.4902735 39.4354158,53.4902735 C39.8071229,53.4902735 40.1721699,53.391613 40.4932709,53.2043691 L49.9019848,47.7178577 C50.8238589,47.1802845 51.3907632,46.1934557 51.3907632,45.1262927 L51.3907632,34.7229182 C51.3907632,33.5631202 50.4505612,32.6229182 49.2907632,32.6229182 C48.9269311,32.6229182 48.5693407,32.7174448 48.2530349,32.8972348 Z" id="Front" stroke="#FFFFFF" stroke-width="1.5" transform="translate(44.363090, 43.056596) rotate(-5.000000) translate(-44.363090, -43.056596) "></path><path d="M19.4826861,36.2968697 L19.4826861,46.6896346 C19.4826861,47.7561254 20.0488822,48.7424379 20.9698382,49.2802507 L30.5295442,54.8628536 C31.4833827,55.4198688 32.7081716,55.0981799 33.2651868,54.1443415 C33.443921,53.8382752 33.5381095,53.4902088 33.5381095,53.1357762 L33.5381095,41.8987153 C33.5381095,41.1434008 33.1324845,40.4462714 32.4758335,40.0730295 L22.6204102,34.4711838 C21.6121117,33.8980646 20.3301194,34.2508471 19.7570002,35.2591456 C19.5772119,35.5754504 19.4826861,35.9330392 19.4826861,36.2968697 Z" id="Front" stroke="#FFFFFF" stroke-width="1.5" transform="translate(26.510398, 44.666303) rotate(-5.000000) translate(-26.510398, -44.666303) "></path><path d="M22.2625089,30.4113668 L32.7692508,36.3884635 C33.6273562,36.8766243 34.6791218,36.8768137 35.537403,36.388962 L46.0425061,30.4178046 C46.7147042,30.0357236 46.9498905,29.1810615 46.5678095,28.5088635 C46.4408975,28.2855863 46.2550129,28.1015216 46.0304979,27.9768125 L35.0585758,21.8823492 C34.451694,21.5452507 33.7134134,21.5469733 33.1081113,21.8869001 L22.2692517,27.9738095 C21.5950864,28.3524087 21.3554827,29.2058429 21.7340819,29.8800082 C21.8586671,30.1018551 22.0413546,30.2855561 22.2625089,30.4113668 Z" id="Front" stroke="#FFFFFF" stroke-width="1.5" transform="translate(34.152723, 29.192726) rotate(-5.000000) translate(-34.152723, -29.192726) "></path></g><g id="Pencil" filter="url(#filter-2)" transform="translate(29.000000, 22.000000)"><path d="M0.0209852692,23.270075 L9.09314081,24.3839957 C9.06653049,24.6007194 8.90758931,25.3076859 8.7553915,25.4680609 L4.48471726,31.0829732 C4.26376376,31.3116471 3.94632129,31.4261522 3.62879585,31.387165 C3.3112704,31.3481777 3.03095862,31.1602777 2.8718896,30.8849429 L0.0864428704,24.4036478 C-0.0224357998,24.2112167 -0.00562505706,23.4867987 0.0209852692,23.270075 Z" id="Fill-244" fill="#E1E4E1"></path><path d="M4.55706304,23.8270354 L9.09314081,24.3839957 C9.06653049,24.6007194 8.90758931,25.3076859 8.7553915,25.4680609 L4.48471726,31.0829732 C4.26376376,31.3116471 3.94632129,31.4261522 3.62879585,31.387165 L4.55706304,23.8270354 Z" id="Fill-245" fill="#C5CCCD"></path><path d="M10.8699251,1.57983785 C11.4263507,1.64815831 11.8222464,2.15721458 11.7541734,2.71162409 L11.444751,5.2316673 C11.3766781,5.7860768 10.8693903,6.18423608 10.3129648,6.11591562 L3.25684382,5.2495329 C2.69991427,5.18115055 2.30452257,4.67215617 2.3725955,4.11774666 L2.6820179,1.59770345 C2.75009083,1.04329395 3.25687459,0.64507278 3.81380414,0.71345513 L10.8699251,1.57983785 Z" id="Fill-246" fill="#546670"></path><path d="M7.12526895,2.91067673 C7.17663307,2.49234956 7.55678948,2.19625014 7.97410863,2.24749049 L11.7541734,2.71162409 L11.444751,5.2316673 L2.3725955,4.11774666 L2.49636446,3.10972938 L6.27642927,3.57386298 C6.69374842,3.62510332 7.07390483,3.32900391 7.12526895,2.91067673 Z" id="Fill-247" fill="#30404D"></path><polygon id="Fill-248" fill="#EFB252" points="6.41605752 24.0552912 4.43329408 24.8350526 2.69806857 23.5987795 5.0496788 4.44645116 8.76766775 4.9029628"></polygon><polygon id="Fill-249" fill="#CC9547" points="9.09314081 24.3839957 7.45734593 25.2063595 6.06908897 24.0126888 8.4206992 4.86036042 11.444751 5.2316673"></polygon><polygon id="Fill-250" fill="#F7CB64" points="3.04503712 23.6413819 1.40924223 24.4637458 0.0209852692 23.270075 2.3725955 4.11774666 5.39664735 4.48905354"></polygon><path d="M2.12943981,29.1566388 L5.62322772,29.585622 L4.48471726,31.0829732 C4.26376376,31.3116471 3.94632129,31.4261522 3.62879585,31.387165 C3.3112704,31.3481777 3.03095862,31.1602777 2.8718896,30.8849429 L2.12943981,29.1566388 Z" id="Fill-251" fill="#30404D"></path><path d="M3.87633376,29.3711304 L5.62322772,29.585622 L4.48471726,31.0829732 C4.26376376,31.3116471 3.94632129,31.4261522 3.62879585,31.387165 L3.87633376,29.3711304 Z" id="Fill-252" fill="#182A37"></path><path d="M11.3828666,5.73567594 L2.31071102,4.6217553 C2.03249825,4.58759507 1.83455039,4.33306693 1.86858686,4.05586218 C1.90262332,3.77865743 2.15626721,3.57957779 2.43447998,3.61373802 L11.5066355,4.72765865 C11.7848483,4.76181889 11.9827961,5.01634702 11.9487597,5.29355178 C11.9147232,5.57075653 11.6610793,5.76983617 11.3828666,5.73567594 Z" id="Fill-253" fill="#ADBDC4"></path><path d="M11.5066355,4.72765865 C11.7848483,4.76181889 11.9827961,5.01634702 11.9487597,5.29355178 C11.9147232,5.57075653 11.6610793,5.76983617 11.3828666,5.73567594 L6.84678879,5.17871562 L6.97055775,4.17069834 L11.5066355,4.72765865 Z" id="Fill-254" fill="#8BA6B1"></path><polygon id="Fill-255" fill="#CC9547" points="5.26284402 5.57879416 5.33476287 4.99306218 8.35881472 5.36436906 8.28689587 5.95010104"></polygon><polygon id="Fill-256" fill="#EFB252" points="2.23879218 5.20748728 2.31071102 4.6217553 5.33476287 4.99306218 5.26284402 5.57879416"></polygon></g><g id="Ruler" filter="url(#filter-3)" transform="translate(6.000000, 44.000000)"><path d="M19.4385473,32.2366746 C20.2483665,31.8590496 20.5986605,30.896625 20.2210355,30.0868058 C19.8434106,29.2769865 18.880986,28.9266926 18.0711667,29.3043175 C17.2613474,29.6819424 16.9110535,30.644367 17.2886784,31.4541863 C17.6663034,32.2640056 18.628728,32.6142995 19.4385473,32.2366746 Z M10.1632773,0.862032993 C10.702831,0.61043497 11.3446972,0.843649404 11.5965231,1.38369183 L25.2703288,30.7072626 C25.5219268,31.2468163 25.2882236,31.8889104 24.7486699,32.1405085 L15.9515987,36.2426501 C15.4115563,36.4944761 14.7699508,36.260545 14.5183528,35.7209913 L0.844547209,6.39742055 C0.592721289,5.85737812 0.826163619,5.21600059 1.36620605,4.96417467 L10.1632773,0.862032993 Z" id="Fill-258" fill="#D8E8F0"></path><path d="M12.2802134,2.84987037 L12.7360069,3.82732273 L9.3149237,5.42260005 C9.04465812,5.54862696 8.72432766,5.43203621 8.59830076,5.16177063 C8.47227385,4.89150505 8.5888646,4.5711746 8.85913018,4.44514769 L12.2802134,2.84987037 Z" id="Fill-259" fill="#617C93"></path><path d="M15.0149745,8.71458452 L15.4707681,9.69203688 L12.0496848,11.2873142 C11.7794192,11.4133411 11.4590888,11.2967504 11.3330619,11.0264848 C11.207035,10.7562192 11.3236257,10.4358887 11.5938913,10.3098618 L15.0149745,8.71458452 Z" id="Fill-260" fill="#617C93"></path><path d="M13.647594,5.78222744 L14.1033875,6.7596798 L8.72739954,9.26654416 C8.45713396,9.39257107 8.13680351,9.27598032 8.0107766,9.00571474 C7.88474969,8.73544917 8.00134044,8.41511871 8.27160602,8.2890918 L13.647594,5.78222744 Z" id="Fill-261" fill="#617C93"></path><path d="M16.3823551,11.6469416 L16.8381486,12.624394 L11.4621607,15.1312583 C11.1918951,15.2572852 10.8715646,15.1406945 10.7455377,14.8704289 C10.6195108,14.6001633 10.7361016,14.2798329 11.0063671,14.153806 L16.3823551,11.6469416 Z" id="Fill-262" fill="#617C93"></path><path d="M17.7497357,14.5792987 L18.2055292,15.556751 L14.7844459,17.1520283 C14.5141804,17.2780553 14.1938499,17.1614645 14.067823,16.8911989 C13.9417961,16.6209333 14.0583868,16.3006029 14.3286524,16.174576 L17.7497357,14.5792987 Z" id="Fill-263" fill="#617C93"></path><path d="M19.1171162,17.5116557 L19.5729098,18.4891081 L14.1969218,20.9959725 C13.9266562,21.1219994 13.6063257,21.0054086 13.4802988,20.735143 C13.3542719,20.4648775 13.4708627,20.144547 13.7411283,20.0185201 L19.1171162,17.5116557 Z" id="Fill-264" fill="#617C93"></path><path d="M20.4844968,20.4440128 L20.9402903,21.4214652 L17.5192071,23.0167425 C17.2489415,23.1427694 16.928611,23.0261787 16.8025841,22.7559131 C16.6765572,22.4856475 16.793148,22.165317 17.0634135,22.0392901 L20.4844968,20.4440128 Z" id="Fill-265" fill="#617C93"></path><path d="M21.8518774,23.3763699 L22.3076709,24.3538222 L16.9316829,26.8606866 C16.6614173,26.9867135 16.3410869,26.8701228 16.21506,26.5998572 C16.0890331,26.3295916 16.2056238,26.0092612 16.4758894,25.8832343 L21.8518774,23.3763699 Z" id="Fill-266" fill="#617C93"></path></g><g id="Azure-Hex-Border" stroke="#0078D4" stroke-width="4"><path d="M45.5620172,3.25834249 L6.67338401,26.8942953 C3.79673288,28.6432593 2,31.9508238 2,35.5582677 L2,82.4417323 C2,86.0486597 3.79764663,89.3586805 6.67318764,91.1055853 L45.560618,114.742485 C46.9289662,115.572418 48.4546283,116 50,116 C51.5458817,116 53.0723633,115.572188 54.4362178,114.743457 L93.3268764,91.1055464 C96.2016145,89.3583456 98,86.0476286 98,82.4417323 L98,35.5582677 C98,31.9518547 96.202529,28.6435953 93.3268966,26.8944659 L54.4351916,3.25759524 C53.0721095,2.42798656 51.5462432,2 50,2 C48.4543284,2 46.9293388,2.42772325 45.5620146,3.25834407 Z M45.5620146,3.25834407 C45.5619597,3.25837737 45.5619049,3.25841067 45.5618501,3.25844398 L45.5621963,3.25823359 L45.5620172,3.25834249 Z"></path></g></g></g></g></svg>

<svg xmlns="http://www.w3.org/2000/svg" viewBox="0 0 100 118"><defs><filter x="-1.4%" y="-1.5%" width="102.9%" height="106.1%" filterUnits="objectBoundingBox" id="a"><feOffset dy="2" in="SourceAlpha" result="shadowOffsetOuter1"/><feColorMatrix values="0 0 0 0 0 0 0 0 0 0 0 0 0 0 0 0 0 0 0.0998358243 0" in="shadowOffsetOuter1" result="shadowMatrixOuter1"/><feMerge><feMergeNode in="shadowMatrixOuter1"/><feMergeNode in="SourceGraphic"/></feMerge></filter><filter x="-8.3%" y="-3.1%" width="116.7%" height="112.5%" filterUnits="objectBoundingBox" id="b"><feOffset dy="2" in="SourceAlpha" result="shadowOffsetOuter1"/><feColorMatrix values="0 0 0 0 0 0 0 0 0 0 0 0 0 0 0 0 0 0 0.0998358243 0" in="shadowOffsetOuter1" result="shadowMatrixOuter1"/><feMerge><feMergeNode in="shadowMatrixOuter1"/><feMergeNode in="SourceGraphic"/></feMerge></filter><filter x="-3.8%" y="-2.7%" width="107.7%" height="110.8%" filterUnits="objectBoundingBox" id="c"><feOffset dy="2" in="SourceAlpha" result="shadowOffsetOuter1"/><feColorMatrix values="0 0 0 0 0 0 0 0 0 0 0 0 0 0 0 0 0 0 0.0998358243 0" in="shadowOffsetOuter1" result="shadowMatrixOuter1"/><feMerge><feMergeNode in="shadowMatrixOuter1"/><feMergeNode in="SourceGraphic"/></feMerge></filter></defs><g fill="none" fill-rule="evenodd"><path d="M44.742 3.497A10.056 10.056 0 0 1 50 2c1.813 0 3.627.499 5.256 1.497l37.335 22.835C95.933 28.377 98 32.203 98 36.352v45.295c0 4.148-2.067 7.977-5.409 10.021l-37.335 22.837A10.056 10.056 0 0 1 50 116c-1.813 0-3.626-.499-5.258-1.495L7.41 91.668C4.066 89.624 2 85.795 2 81.648V36.352c0-4.15 2.066-7.976 5.409-10.021L44.743 3.497z" fill="#F2C811"/><g filter="url(#a)" transform="translate(18 23)"><path d="M62.972 48.791l-3.311-37.855-56.784 4.968A2 2 0 0 0 1.06 18.07l4.01 45.825a2 2 0 0 0 2.166 1.818l56.783-4.968a5 5 0 0 0 4.546-5.416l-.61-6.974-4.982.436" fill="#4D84CD"/><path d="M63.147 50.784l-.996.087a2 2 0 0 1-2.167-1.818l-4.01-45.825a2 2 0 0 1 1.819-2.167l.996-.087a5 5 0 0 1 5.417 4.545l4.358 49.81a5 5 0 0 0-5.417-4.545" fill="#314263"/><path d="M47.353 32.597l-9.33 6.44a2.1 2.1 0 0 0-.899 1.91l.964 11.024a2.1 2.1 0 0 0 3.304 1.532l8.895-6.286a3 3 0 0 0 1.257-2.711l-.906-10.364a2.1 2.1 0 0 0-3.285-1.545zM18.78 36.941l.906 10.353a3 3 0 0 0 1.707 2.452l10.01 4.728a2 2 0 0 0 2.847-1.983l-.98-11.194a2.1 2.1 0 0 0-1.217-1.726l-10.306-4.722a2.1 2.1 0 0 0-2.967 2.092zM22.414 31.443l10.988 5.039a2.8 2.8 0 0 0 2.757-.241l9.945-6.864a1.4 1.4 0 0 0-.225-2.43L34.418 21.83a2 2 0 0 0-1.943.175l-10.267 7.008a1.4 1.4 0 0 0 .206 2.429z" stroke="#FFF" stroke-width="1.5"/></g><g filter="url(#b)" transform="translate(29 22)"><path d="M.021 23.27l9.072 1.114c-.026.217-.185.924-.338 1.084l-4.27 5.615a1.02 1.02 0 0 1-.856.304 1.02 1.02 0 0 1-.757-.502L.086 24.404c-.108-.193-.092-.917-.065-1.134z" fill="#E1E4E1"/><path d="M4.557 23.827l4.536.557c-.026.217-.185.924-.338 1.084l-4.27 5.615a1.02 1.02 0 0 1-.856.304l.928-7.56z" fill="#C5CCCD"/><path d="M10.87 1.58c.556.068.952.577.884 1.132l-.31 2.52a1.017 1.017 0 0 1-1.131.884L3.257 5.25a1.017 1.017 0 0 1-.884-1.132l.309-2.52A1.017 1.017 0 0 1 3.814.713l7.056.867z" fill="#546670"/><path d="M7.125 2.91a.761.761 0 0 1 .85-.663l3.78.465-.31 2.52-9.072-1.114.123-1.008 3.78.464a.761.761 0 0 0 .85-.663z" fill="#30404D"/><path fill="#EFB252" d="M6.416 24.055l-1.983.78L2.698 23.6 5.05 4.446l3.718.457z"/><path fill="#CC9547" d="M9.093 24.384l-1.636.822-1.388-1.193L8.421 4.86l3.024.372z"/><path fill="#F7CB64" d="M3.045 23.641l-1.636.823L.021 23.27 2.373 4.118l3.024.371z"/><path d="M2.13 29.157l3.493.429-1.138 1.497a1.02 1.02 0 0 1-.856.304 1.02 1.02 0 0 1-.757-.502l-.743-1.728z" fill="#30404D"/><path d="M3.876 29.371l1.747.215-1.138 1.497a1.02 1.02 0 0 1-.856.304l.247-2.016z" fill="#182A37"/><path d="M11.383 5.736L2.31 4.622a.509.509 0 0 1 .123-1.008l9.073 1.114a.509.509 0 0 1-.124 1.008z" fill="#ADBDC4"/><path d="M11.507 4.728a.509.509 0 0 1-.124 1.008l-4.536-.557.124-1.008 4.536.557z" fill="#8BA6B1"/><path fill="#CC9547" d="M5.263 5.579l.072-.586 3.024.371-.072.586z"/><path fill="#EFB252" d="M2.239 5.207l.072-.585 3.024.371-.072.586z"/></g><g filter="url(#c)" transform="translate(6 44)"><path d="M19.439 32.237a1.618 1.618 0 1 0-1.368-2.933 1.618 1.618 0 0 0 1.368 2.933zM10.163.862a1.079 1.079 0 0 1 1.434.522L25.27 30.707c.252.54.018 1.182-.521 1.434l-8.797 4.102a1.079 1.079 0 0 1-1.434-.522L.845 6.397a1.078 1.078 0 0 1 .521-1.433L10.163.862z" fill="#D8E8F0"/><path d="M12.28 2.85l.456.977-3.421 1.596a.539.539 0 1 1-.456-.978L12.28 2.85zM15.015 8.715l.456.977-3.421 1.595a.539.539 0 1 1-.456-.977l3.421-1.595zM13.648 5.782l.455.978-5.376 2.507a.539.539 0 1 1-.455-.978l5.376-2.507zM16.382 11.647l.456.977-5.376 2.507a.539.539 0 1 1-.456-.977l5.376-2.507zM17.75 14.58l.456.977-3.422 1.595a.539.539 0 1 1-.455-.977l3.42-1.596zM19.117 17.512l.456.977-5.376 2.507a.539.539 0 1 1-.456-.977l5.376-2.507zM20.484 20.444l.456.977-3.42 1.596a.539.539 0 1 1-.457-.978l3.421-1.595zM21.852 23.376l.456.978-5.376 2.507a.539.539 0 1 1-.456-.978l5.376-2.507z" fill="#617C93"/></g><path d="M45.562 3.258L6.673 26.894C3.797 28.644 2 31.951 2 35.558v46.884c0 3.607 1.798 6.917 4.673 8.664l38.888 23.636A8.539 8.539 0 0 0 50 116a8.525 8.525 0 0 0 4.436-1.257l38.89-23.637C96.203 89.358 98 86.048 98 82.442V35.558c0-3.606-1.797-6.914-4.673-8.664L54.435 3.258A8.511 8.511 0 0 0 50 2c-1.546 0-3.07.428-4.438 1.258zm0 0s0 0 0 0h0z" stroke="#0078D4" stroke-width="4"/></g></svg>
